X: 1
T:Missa Ave maris stella / Kyrie
N: Derived from Jos0301a-Missa_Ave_maris_stella-Kyrie.krn
C: Josquin des Prez
%%abc-version 2.0
%%abcx-abcm2ps-target-version 5.9.1 (29 Sep 2008)
%%abc-creator hum2abc beta
%%abcx-conversion-date 2019/02/12 16:15:37
%%abc-edited-by Jesse Rodin
%%abc-edited-by Jesse Rodin; Victoria Chang 2011/04/01/
%%abcx-initial-encoding-date 2011/04/01/
%%humdrum-veritas 3976790337
%%humdrum-veritas-data 1895241076
%%linebreak <none>
%%barnumbers 0
L: 1/4
M: 3/1
Q: 1/2=120
%%staves [1 2 3 4]
V: 1 clef=treble
V: 2 clef=treble-8
V: 3 clef=treble-8
V: 4 clef=bass
K: F
[V:1] z12 | 
[V:2] G4d6cd | 
[V:3] z12 | 
[V:4] z12 | 
[V:1] G4d6cd | 
[V:2] e4d2f4ed | 
[V:3] z12 | 
[V:4] z12 | 
[V:1] e4d2f4ed | 
[V:2] c2g3fd2f2g2 | 
[V:3] z12 | 
[V:4] z12 | 
[V:1] c4d4e4 | 
[V:2] e2f4edc2g2 | 
[V:3] z12 | 
[V:4] z12 | 
[V:1] f3e/f/edd4^c2 | 
[V:2] f2a3gf2e4 | 
[V:3] z12 | 
[V:4] D,4A,6G,A, | 
[V:1] d6B4G2 | 
[V:2] d4G3AB4 | 
[V:3] G4d6cd | 
[V:4] B,6G,2G,4 | 
[V:1] G6ABc4 | 
[V:2] c3defg4^f2 | 
[V:3] e8c4 | 
[V:4] z2C4B,2A,4 | 
[V:1] B4A2A4F2 | 
[V:2] g4z2c2d2A2 | 
[V:3] d4f8 | 
[V:4] G,4F,3E,D,4 | 
[V:1] G3FE2D2z2d2- | 
[V:2] c4z2d2B2G2 | 
[V:3] e3de2f2g4 | 
[V:4] C,2C4B,2G,2B,2- | 
[V:1] dcA2G2B4AG | 
[V:2] d4z2F2G3A | 
[V:3] f3de2d4^c2 | 
[V:4] B,A,F,2G,2D,2E,4 | 
[V:1] F8B4 | 
[V:2] B2A4F2GABG | 
[V:3] d4z4d4 | 
[V:4] D,8z2G,2 | 
[V:1] A2B3cA2G2d2 | 
[V:2] A2G2z2c2B2G2- | 
[V:3] d4G2A2B4 | 
[V:4] F,2G,3E,F,2G,4 | 
[V:1] _e4d3BcdB2- | 
[V:2] GAc2B2G2z2d2 | 
[V:3] c3BG2B2A2G2 | 
[V:4] C,4z2G,2F,2G,2- | 
[V:1] BGA3BG3E^F2 | 
[V:2] _e2c2_e2d6- | 
[V:3] c3BG2B2A4 | 
[V:4] G,E,F,2G,4D,4 | 
[V:1] G12 ||  
[V:2] d2B2_e4d4 ||  
[V:3] G12 ||  
[V:4] G,12 ||  
[V:1] [M:2/1]B6AG | 
[V:2] [M:2/1]z8 | 
[V:3] [M:2/1]z8 | 
[V:4] [M:2/1]z8 | 
[V:1] B4A4- | 
[V:2] z8 | 
[V:3] z8 | 
[V:4] z8 | 
[V:1] A2B2c2d2 | 
[V:2] f6ed | 
[V:3] z8 | 
[V:4] z8 | 
[V:1] A2d4^c2 | 
[V:2] f2g2e4 | 
[V:3] z8 | 
[V:4] z8 | 
[V:1] d8 | 
[V:2] d3ef2g2- | 
[V:3] B6AG | 
[V:4] z8 | 
[V:1] z4z4 | 
[V:2] g2d2f3e | 
[V:3] B4A4- | 
[V:4] z8 | 
[V:1] z8 | 
[V:2] c4F3G | 
[V:3] A2B2c2d2 | 
[V:4] F,6E,D, | 
[V:1] z8 | 
[V:2] A2B2G3A | 
[V:3] A2d4^c2 | 
[V:4] F,2G,2E,4 | 
[V:1] z8 | 
[V:2] B2A3GB2 | 
[V:3] d8- | 
[V:4] D,3E,F,2G,2 | 
[V:1] z8 | 
[V:2] A2G2A4 | 
[V:3] d8 | 
[V:4] D,2G,4^F,2 | 
[V:1] d8- | 
[V:2] z4G4 | 
[V:3] d8 | 
[V:4] G,8- | 
[V:1] d8 | 
[V:2] B8 | 
[V:3] G8- | 
[V:4] G,8 | 
[V:1] _e8 | 
[V:2] c8 | 
[V:3] G4A4 | 
[V:4] C,8 | 
[V:1] d6e2 | 
[V:2] d8- | 
[V:3] B8 | 
[V:4] G,8 | 
[V:1] f6ed | 
[V:2] d4f4- | 
[V:3] A6G2 | 
[V:4] D,6E,2 | 
[V:1] c2A2d4 | 
[V:2] f4d4 | 
[V:3] A4B4 | 
[V:4] F,4B,,4 | 
[V:1] c2B4AG | 
[V:2] _e3dB2c2 | 
[V:3] G8 | 
[V:4] _E,8 | 
[V:1] B4A4 | 
[V:2] d3cd2A2 | 
[V:3] F8- | 
[V:4] D,8- | 
[V:1] A8 ||  
[V:2] d8 ||  
[V:3] F8 ||  
[V:4] D,8 ||  
[V:1] [M:3/1]A8c4- | 
[V:2] [M:3/1]z12 | 
[V:3] [M:3/1]z4A8 | 
[V:4] [M:3/1]z12 | 
[V:1] c2BAG2A2B4- | 
[V:2] z12 | 
[V:3] c6BAG2A2 | 
[V:4] z12 | 
[V:1] B2AGF2G4^F2 | 
[V:2] z12 | 
[V:3] B6G2A4 | 
[V:4] z12 | 
[V:1] G12 | 
[V:2] z2d2e2f2g4- | 
[V:3] G12 | 
[V:4] z4z4E,4 | 
[V:1] z12 | 
[V:2] g2fed2e2f4- | 
[V:3] z12 | 
[V:4] G,6F,E,D,2E,2 | 
[V:1] z12 | 
[V:2] f2edc2d4^c2 | 
[V:3] z12 | 
[V:4] F,6D,2E,4 | 
[V:1] z12 | 
[V:2] d2f4edc4 | 
[V:3] z4A8 | 
[V:4] D,6F,4E,D, | 
[V:1] z12 | 
[V:2] z12 | 
[V:3] c6BAG2A2 | 
[V:4] C,3D,E,2F,2G,2F,2 | 
[V:1] z12 | 
[V:2] z12 | 
[V:3] B6G2A4 | 
[V:4] G,2D,2E,D,G,4^F,2 | 
[V:1] z2G2B3cd4 | 
[V:2] z4z2G2B3c | 
[V:3] G12 | 
[V:4] G,8z4 | 
[V:1] d3c/B/A2B2c4- | 
[V:2] d6cBA2B2 | 
[V:3] z12 | 
[V:4] z12 | 
[V:1] c2BAG2A4G2 | 
[V:2] c6A2B4 | 
[V:3] z12 | 
[V:4] z12 | 
[V:1] A8z2A2- | 
[V:2] A4d4c4 | 
[V:3] z4A8 | 
[V:4] D,8F,4- | 
[V:1] A2F2A2G4E2 | 
[V:2] f4e4c4 | 
[V:3] c6BAG2A2 | 
[V:4] F,4C,8 | 
[V:1] G2F2D2G3FGA | 
[V:2] d6c2d4 | 
[V:3] B6G2A2B2 | 
[V:4] z2B,,3C,_E,2D,2G,2- | 
[V:1] B3AF2G4^F2 | 
[V:2] z2d4c2d4- | 
[V:3] G2B4AGA4 | 
[V:4] G,F,G,2D,2E,2D,4 | 
[V:1] G12 |]  
[V:2] d12 |]  
[V:3] G12 |]  
[V:4] G,12 |]  



